assets/img/braze_icons/gift-01.svg

<svg fill="none" height="24" viewBox="0 0 24 24" width="24" xmlns="http://www.w3.org/2000/svg"><g fill="#801ed7"><path clip-rule="evenodd" d="m5.66953 5c-.11132-.31867-.16953-.65661-.16953-1 0-.78989.30801-1.55098.86188-2.11492.55447-.56455 1.31036-.88508 2.10241-.88508 1.79471 0 2.90821 1.21846 3.53571 2.27224.6275-1.05378 1.741-2.27224 3.5357-2.27224.7921 0 1.548.32053 2.1024.88508.5539.56394.8619 1.32503.8619 2.11492 0 .34339-.0582.68133-.1695 1h2.196c.21-.00002.4147-.00004.5887.01184.1904.01299.4161.04346.6502.14041.49.20299.8794.59233 1.0824 1.08239.0969.23404.1274.45977.1404.65014.0119.17398.0118.37864.0118.58855v.05335c0 .2099.0001.41458-.0118.58855-.013.19037-.0435.4161-.1404.65014-.203.49006-.5924.87941-1.0824 1.08239-.2341.09695-.4598.12742-.6502.14041-.174.01183-.3786.01183-.5887.01183h-17.05297c-.21005 0-.41467 0-.58875-.01183-.19037-.01299-.4161-.04346-.65014-.14041-.49006-.20298-.8794-.59233-1.08239-1.08239-.09695-.23404-.12742-.45977-.14041-.65014-.011871-.17402-.011855-.37864-.01184-.5886v-.05319c-.000015-.20996-.000031-.41464.01184-.58866.01299-.19037.04346-.4161.14041-.65014.20299-.49006.59233-.8794 1.08239-1.08239.23404-.09695.45977-.12742.65014-.14041.17404-.01187.37877-.01186.58876-.01184zm2.79476-2c-.24987 0-.49323.1009-.67551.28649-.18289.18621-.28878.44254-.28878.71351s.10589.5273.28878.71351c.18228.18559.42564.28649.67551.28649h2.17001c-.0724-.17135-.1557-.34884-.2507-.52473-.48591-.89946-1.10963-1.47527-1.91931-1.47527zm4.90151 2c.0723-.17135.1556-.34884.2507-.52473.4858-.89946 1.1095-1.47527 1.9192-1.47527.2499 0 .4933.1009.6755.28649.1829.18621.2888.44254.2888.71351s-.1059.5273-.2888.71351c-.1822.18559-.4256.28649-.6755.28649z" fill-rule="evenodd"/><path d="m3.00001 13c0-.5523.44771-1 1-1h6.19999c.28 0 .42 0 .527.0545.0941.0479.1706.1244.2185.2185.0545.107.0545.247.0545.527v9.4c0 .28 0 .42-.0545.527-.0479.0941-.1244.1706-.2185.2185-.107.0545-.247.0545-.527.0545h-3.03864c-.52704 0-.98187 0-1.35638-.0306-.39535-.0323-.78857-.1036-1.16695-.2964-.56448-.2876-1.02342-.7465-1.31104-1.311-.1928-.3784-.26411-.7716-.29641-1.167-.03061-.3745-.03059-.8293-.03057-1.3565z"/><path d="m18.195 22.9694c-.3745.0306-.8293.0306-1.3565.0306h-3.0385c-.28 0-.42 0-.527-.0545-.0941-.0479-.1706-.1244-.2185-.2185-.0545-.107-.0545-.247-.0545-.527v-9.4c0-.28 0-.42.0545-.527.0479-.0941.1244-.1706.2185-.2185.107-.0545.247-.0545.527-.0545h6.2c.5523 0 1 .4477 1 1v5.8386c0 .5271 0 .9819-.0306 1.3564-.0323.3954-.1036.7886-.2964 1.167-.2876.5645-.7465 1.0234-1.311 1.311-.3784.1928-.7716.2641-1.167.2964z"/></g></svg>

<svg width="24" height="24" viewBox="0 0 24 24" fill="none" xmlns="http://www.w3.org/2000/svg">
<path fill-rule="evenodd" clip-rule="evenodd" d="M5.66953 5C5.55821 4.68133 5.5 4.34339 5.5 4C5.5 3.21011 5.80801 2.44902 6.36188 1.88508C6.91635 1.32053 7.67224 1 8.46429 1C10.259 1 11.3725 2.21846 12 3.27224C12.6275 2.21846 13.741 1 15.5357 1C16.3278 1 17.0837 1.32053 17.6381 1.88508C18.192 2.44902 18.5 3.21011 18.5 4C18.5 4.34339 18.4418 4.68133 18.3305 5L20.5265 5C20.7365 4.99998 20.9412 4.99996 21.1152 5.01184C21.3056 5.02483 21.5313 5.0553 21.7654 5.15225C22.2554 5.35524 22.6448 5.74458 22.8478 6.23464C22.9447 6.46868 22.9752 6.69441 22.9882 6.88478C23.0001 7.05876 23 7.26342 23 7.47333V7.52668C23 7.73658 23.0001 7.94126 22.9882 8.11523C22.9752 8.3056 22.9447 8.53133 22.8478 8.76537C22.6448 9.25543 22.2554 9.64478 21.7654 9.84776C21.5313 9.94471 21.3056 9.97518 21.1152 9.98817C20.9412 10 20.7366 10 20.5265 10H3.47353C3.26348 10 3.05886 10 2.88478 9.98817C2.69441 9.97518 2.46868 9.94471 2.23464 9.84776C1.74458 9.64478 1.35524 9.25543 1.15225 8.76537C1.0553 8.53133 1.02483 8.3056 1.01184 8.11523C0.999969 7.94121 0.999985 7.73659 1 7.52663V7.47344C0.999985 7.26348 0.999969 7.0588 1.01184 6.88478C1.02483 6.69441 1.0553 6.46868 1.15225 6.23464C1.35524 5.74458 1.74458 5.35524 2.23464 5.15225C2.46868 5.0553 2.69441 5.02483 2.88478 5.01184C3.05882 4.99997 3.26355 4.99998 3.47354 5L5.66953 5ZM8.46429 3C8.21442 3 7.97106 3.1009 7.78878 3.28649C7.60589 3.4727 7.5 3.72903 7.5 4C7.5 4.27097 7.60589 4.5273 7.78878 4.71351C7.97106 4.8991 8.21442 5 8.46429 5H10.6343C10.5619 4.82865 10.4786 4.65116 10.3836 4.47527C9.89769 3.57581 9.27397 3 8.46429 3ZM13.3658 5C13.4381 4.82865 13.5214 4.65116 13.6165 4.47527C14.1023 3.57581 14.726 3 15.5357 3C15.7856 3 16.029 3.1009 16.2112 3.28649C16.3941 3.4727 16.5 3.72903 16.5 4C16.5 4.27097 16.3941 4.5273 16.2112 4.71351C16.029 4.8991 15.7856 5 15.5357 5H13.3658Z" fill="#801ED7"/>
<path d="M3.00001 13C3.00001 12.4477 3.44772 12 4.00001 12H10.2C10.48 12 10.62 12 10.727 12.0545C10.8211 12.1024 10.8976 12.1789 10.9455 12.273C11 12.38 11 12.52 11 12.8V22.2C11 22.48 11 22.62 10.9455 22.727C10.8976 22.8211 10.8211 22.8976 10.727 22.9455C10.62 23 10.48 23 10.2 23H7.16136C6.63432 23 6.17949 23 5.80498 22.9694C5.40963 22.9371 5.01641 22.8658 4.63803 22.673C4.07355 22.3854 3.61461 21.9265 3.32699 21.362C3.13419 20.9836 3.06288 20.5904 3.03058 20.195C2.99997 19.8205 2.99999 19.3657 3.00001 18.8385L3.00001 13Z" fill="#801ED7"/>
<path d="M18.195 22.9694C17.8205 23 17.3657 23 16.8385 23H13.8C13.52 23 13.38 23 13.273 22.9455C13.1789 22.8976 13.1024 22.8211 13.0545 22.727C13 22.62 13 22.48 13 22.2V12.8C13 12.52 13 12.38 13.0545 12.273C13.1024 12.1789 13.1789 12.1024 13.273 12.0545C13.38 12 13.52 12 13.8 12H20C20.5523 12 21 12.4477 21 13V18.8386C21 19.3657 21 19.8205 20.9694 20.195C20.9371 20.5904 20.8658 20.9836 20.673 21.362C20.3854 21.9265 19.9265 22.3854 19.362 22.673C18.9836 22.8658 18.5904 22.9371 18.195 22.9694Z" fill="#801ED7"/>
</svg>
